!!!OTL: Geistliches Minnelied
!!!ARE: Europa, Mitteleuropa, Deutschland
!!!SCT: A0651
!!!YEM: Copyright 1995, estate of Helmut Schaffrath.
**kern
*ICvox
*Ivox
*M4/2
*k[f#c#]
*D:
{2d
2d
2d
=1
2a
2a
2ccn
2ccn
=2
1a
2r}
{2g
=3
2a
2ccn
2.a
4ccn
=4
2b-
4a
4g
2fn
4r}
{4fn
=5
2g
2b-
2a
2fn
=6
2d
2g
2fn}
{2cn
=7
2d
2d
2g
2g
=8
2g
4fn
4e
1d
=9
2r}
==
!!!AGN: Romanze, Ballade, Lied, religioeses Lied
!! Strassburger Hs.
!!!ONB: ESAC (Essen Associative Code) Database: ALTDEU
!!!AMT: simple quadruple
!!!AIN: vox
!!!EED: Helmut Schaffrath
!!!EEV: 1.0
*-
